Numix/16/status/indicator-keyboard-Fo-2.svg

<?xml version="1.0" encoding="UTF-8" standalone="no"?>
<svg
   xmlns:dc="http://purl.org/dc/elements/1.1/"
   xmlns:cc="http://creativecommons.org/ns#"
   xmlns:rdf="http://www.w3.org/1999/02/22-rdf-syntax-ns#"
   xmlns:svg="http://www.w3.org/2000/svg"
   xmlns="http://www.w3.org/2000/svg"
   xmlns:sodipodi="http://sodipodi.sourceforge.net/DTD/sodipodi-0.dtd"
   xmlns:inkscape="http://www.inkscape.org/namespaces/inkscape"
   viewBox="0 0 16 16"
   id="svg2"
   version="1.1"
   inkscape:version="0.91 r13725"
   sodipodi:docname="indicator-keyboard-Fo-2.svg">
  <metadata
     id="metadata14">
    <rdf:RDF>
      <cc:Work
         rdf:about="">
        <dc:format>image/svg+xml</dc:format>
        <dc:type
           rdf:resource="http://purl.org/dc/dcmitype/StillImage" />
      </cc:Work>
    </rdf:RDF>
  </metadata>
  <defs
     id="defs12" />
  <sodipodi:namedview
     pagecolor="#ffffff"
     bordercolor="#666666"
     borderopacity="1"
     objecttolerance="10"
     gridtolerance="10"
     guidetolerance="10"
     inkscape:pageopacity="0"
     inkscape:pageshadow="2"
     inkscape:window-width="640"
     inkscape:window-height="480"
     id="namedview10"
     showgrid="false"
     inkscape:zoom="14.75"
     inkscape:cx="8"
     inkscape:cy="8"
     inkscape:window-x="65"
     inkscape:window-y="24"
     inkscape:window-maximized="0"
     inkscape:current-layer="svg2" />
  <path
     style="fill:#ececec;fill-opacity:1"
     d="M 1.5996094 0 C 0.71320937 2.9605947e-16 0 0.71320937 0 1.5996094 L 0 14.400391 C 2.9605947e-16 15.286791 0.71320937 16 1.5996094 16 L 14.400391 16 C 15.286791 16 16 15.286791 16 14.400391 L 16 1.5996094 C 16 0.71320937 15.286791 0 14.400391 0 L 1.5996094 0 z M 2.0449219 4.859375 L 5.5996094 4.859375 L 5.5996094 5.390625 L 2.65625 5.390625 L 2.65625 7.5859375 L 5.265625 7.5859375 L 5.265625 8.1171875 L 2.65625 8.1171875 L 2.65625 11.095703 L 2.0449219 11.095703 L 2.0449219 4.859375 z M 8.5292969 6.3359375 C 8.8412969 6.3359375 9.1248125 6.395625 9.3828125 6.515625 C 9.6408125 6.629625 9.8628282 6.7937656 10.048828 7.0097656 C 10.240828 7.2197656 10.388234 7.4753906 10.490234 7.7753906 C 10.598234 8.0753906 10.652344 8.4074375 10.652344 8.7734375 C 10.652344 9.1394375 10.598234 9.4734375 10.490234 9.7734375 C 10.388234 10.073438 10.240828 10.327109 10.048828 10.537109 C 9.8628282 10.747109 9.6408125 10.913203 9.3828125 11.033203 C 9.1248125 11.147203 8.8412969 11.203125 8.5292969 11.203125 C 8.2172969 11.203125 7.9318281 11.147203 7.6738281 11.033203 C 7.4158281 10.913203 7.1900469 10.747109 6.9980469 10.537109 C 6.8120469 10.327109 6.6665938 10.073438 6.5585938 9.7734375 C 6.4565938 9.4734375 6.4042969 9.1394375 6.4042969 8.7734375 C 6.4042969 8.4074375 6.4565938 8.0753906 6.5585938 7.7753906 C 6.6665937 7.4753906 6.8120469 7.2197656 6.9980469 7.0097656 C 7.1900469 6.7937656 7.4158281 6.629625 7.6738281 6.515625 C 7.9318281 6.395625 8.2172969 6.3359375 8.5292969 6.3359375 z M 8.5292969 6.8652344 C 8.0672969 6.8652344 7.7016406 7.0406719 7.4316406 7.3886719 C 7.1616406 7.7306719 7.0253906 8.1914375 7.0253906 8.7734375 C 7.0253906 9.3554375 7.1616406 9.818156 7.4316406 10.160156 C 7.7016406 10.502156 8.0672969 10.673828 8.5292969 10.673828 C 8.9912969 10.673828 9.3569531 10.502156 9.6269531 10.160156 C 9.8969531 9.818156 10.03125 9.3554375 10.03125 8.7734375 C 10.03125 8.1914375 9.8969531 7.7306719 9.6269531 7.3886719 C 9.3569531 7.0406719 8.9912969 6.8652344 8.5292969 6.8652344 z M 12.628906 8.7539062 C 13.022806 8.7539062 13.318678 8.851875 13.517578 9.046875 C 13.716478 9.237975 13.816406 9.5044563 13.816406 9.8476562 C 13.816406 9.9997563 13.788975 10.14475 13.734375 10.28125 C 13.679775 10.41385 13.605319 10.543169 13.511719 10.667969 C 13.422019 10.792769 13.318172 10.912297 13.201172 11.029297 C 13.084172 11.146297 12.96465 11.263859 12.84375 11.380859 C 12.74235 11.478359 12.644375 11.578288 12.546875 11.679688 C 12.453275 11.777188 12.367062 11.877116 12.289062 11.978516 C 12.214963 12.076016 12.154222 12.172031 12.107422 12.269531 C 12.064522 12.363131 12.042969 12.457181 12.042969 12.550781 L 12.042969 12.5625 L 13.955078 12.5625 L 13.955078 12.896484 L 11.621094 12.896484 C 11.621094 12.888684 11.619168 12.874969 11.615234 12.855469 L 11.615234 12.755859 C 11.615234 12.572559 11.648544 12.402094 11.714844 12.246094 C 11.781144 12.086194 11.865397 11.937275 11.966797 11.796875 C 12.072097 11.656475 12.1877 11.525197 12.3125 11.404297 C 12.4412 11.283397 12.564641 11.165834 12.681641 11.052734 C 12.779141 10.959134 12.869278 10.869003 12.955078 10.783203 C 13.044778 10.693503 13.123153 10.603366 13.189453 10.509766 C 13.255753 10.416166 13.308656 10.316237 13.347656 10.210938 C 13.386656 10.105638 13.40625 9.9900344 13.40625 9.8652344 C 13.40625 9.5922344 13.331794 9.39825 13.183594 9.28125 C 13.039294 9.16035 12.857066 9.0996094 12.634766 9.0996094 C 12.509966 9.0996094 12.398281 9.1152844 12.300781 9.1464844 C 12.203281 9.1776844 12.117069 9.2149125 12.042969 9.2578125 C 11.972769 9.2968125 11.912028 9.3379594 11.861328 9.3808594 C 11.810628 9.4237594 11.7734 9.4570688 11.75 9.4804688 L 11.550781 9.2167969 C 11.574181 9.1894969 11.615328 9.1503094 11.673828 9.0996094 C 11.736228 9.0450094 11.812644 8.9921062 11.902344 8.9414062 C 11.995944 8.8907063 12.103709 8.8476 12.224609 8.8125 C 12.345509 8.7735 12.480706 8.7539063 12.628906 8.7539062 z "
     id="path4" />
</svg>

<svg xmlns="http://www.w3.org/2000/svg" viewBox="0 0 16 16">
 <path d="m 1.6 0 c -0.886 0 -1.6 0.713 -1.6 1.6 l 0 12.801 c 0 0.886 0.713 1.6 1.6 1.6 l 12.801 0 c 0.886 0 1.6 -0.713 1.6 -1.6 l 0 -12.801 c 0 -0.886 -0.713 -1.6 -1.6 -1.6 l -12.801 0 z m 0.445 4.859 l 3.555 0 l 0 0.531 l -2.943 0 l 0 2.195 l 2.609 0 l 0 0.531 l -2.609 0 l 0 2.979 l -0.611 0 l 0 -6.236 z m 6.484 1.477 c 0.312 0 0.596 0.06 0.854 0.18 c 0.258 0.114 0.48 0.278 0.666 0.494 c 0.192 0.21 0.339 0.466 0.441 0.766 c 0.108 0.3 0.162 0.632 0.162 0.998 c 0 0.366 -0.054 0.7 -0.162 1 c -0.102 0.3 -0.249 0.554 -0.441 0.764 c -0.186 0.21 -0.408 0.376 -0.666 0.496 c -0.258 0.114 -0.542 0.17 -0.854 0.17 c -0.312 0 -0.597 -0.056 -0.855 -0.17 c -0.258 -0.12 -0.484 -0.286 -0.676 -0.496 c -0.186 -0.21 -0.331 -0.464 -0.439 -0.764 c -0.102 -0.3 -0.154 -0.634 -0.154 -1 c 0 -0.366 0.052 -0.698 0.154 -0.998 c 0.108 -0.3 0.253 -0.556 0.439 -0.766 c 0.192 -0.216 0.418 -0.38 0.676 -0.494 c 0.258 -0.12 0.543 -0.18 0.855 -0.18 z m 0 0.529 c -0.462 0 -0.828 0.175 -1.098 0.523 c -0.27 0.342 -0.406 0.803 -0.406 1.385 c 0 0.582 0.136 1.045 0.406 1.387 c 0.27 0.342 0.636 0.514 1.098 0.514 c 0.462 0 0.828 -0.172 1.098 -0.514 c 0.27 -0.342 0.404 -0.805 0.404 -1.387 c 0 -0.582 -0.134 -1.043 -0.404 -1.385 c -0.27 -0.348 -0.636 -0.523 -1.098 -0.523 z m 4.1 1.889 c 0.394 0 0.69 0.098 0.889 0.293 c 0.199 0.191 0.299 0.458 0.299 0.801 c 0 0.152 -0.027 0.297 -0.082 0.434 c -0.055 0.133 -0.129 0.262 -0.223 0.387 c -0.09 0.125 -0.194 0.244 -0.311 0.361 c -0.117 0.117 -0.237 0.235 -0.357 0.352 c -0.101 0.098 -0.199 0.197 -0.297 0.299 c -0.094 0.098 -0.18 0.197 -0.258 0.299 c -0.074 0.097 -0.135 0.194 -0.182 0.291 c -0.043 0.094 -0.064 0.188 -0.064 0.281 l 0 0.012 l 1.912 0 l 0 0.334 l -2.334 0 c 0 -0.008 -0.002 -0.022 -0.006 -0.041 l 0 -0.1 c 0 -0.183 0.033 -0.354 0.1 -0.51 c 0.066 -0.16 0.151 -0.309 0.252 -0.449 c 0.105 -0.14 0.221 -0.272 0.346 -0.393 c 0.129 -0.121 0.252 -0.238 0.369 -0.352 c 0.097 -0.094 0.188 -0.184 0.273 -0.27 c 0.09 -0.09 0.168 -0.18 0.234 -0.273 c 0.066 -0.094 0.119 -0.194 0.158 -0.299 c 0.039 -0.105 0.059 -0.221 0.059 -0.346 c 0 -0.273 -0.074 -0.467 -0.223 -0.584 c -0.144 -0.121 -0.327 -0.182 -0.549 -0.182 c -0.125 0 -0.236 0.016 -0.334 0.047 c -0.098 0.031 -0.184 0.068 -0.258 0.111 c -0.07 0.039 -0.131 0.08 -0.182 0.123 c -0.051 0.043 -0.088 0.076 -0.111 0.1 l -0.199 -0.264 c 0.023 -0.027 0.065 -0.066 0.123 -0.117 c 0.062 -0.055 0.139 -0.108 0.229 -0.158 c 0.094 -0.051 0.201 -0.094 0.322 -0.129 c 0.121 -0.039 0.256 -0.059 0.404 -0.059 z" style="fill:#ececec;fill-opacity:1"/>
</svg>
